svg/military_worker_positive.svg

<?xml version="1.0" encoding="UTF-8" standalone="no"?>
<!-- Created with Inkscape (http://www.inkscape.org/) -->
<svg id="svg8" xmlns:rdf="http://www.w3.org/1999/02/22-rdf-syntax-ns#" xmlns="http://www.w3.org/2000/svg" xmlns:osb="http://www.openswatchbook.org/uri/2009/osb" height="48" width="48" version="1.1" xmlns:cc="http://creativecommons.org/ns#" viewBox="0 0 12.7 12.7" xmlns:dc="http://purl.org/dc/elements/1.1/">
 <title id="title4753">UIO-icon</title>
 <metadata id="metadata5">
  <rdf:RDF>
   <cc:Work rdf:about="">
    <dc:format>image/svg+xml</dc:format>
    <dc:type rdf:resource="http://purl.org/dc/dcmitype/StillImage"/>
    <dc:title>UIO-icon</dc:title>
    <dc:creator>
     <cc:Agent>
      <dc:title>Joaquín Urbano</dc:title>
     </cc:Agent>
    </dc:creator>
    <dc:rights>
     <cc:Agent>
      <dc:title>GPL</dc:title>
     </cc:Agent>
    </dc:rights>
   </cc:Work>
  </rdf:RDF>
 </metadata>
 <g id="layer1" fill="#333" transform="translate(0,-284.3)">
  <path id="rect5919" d="m23.502 4.9316c-3.1373 0.003707-6.0165 1.7381-7.4863 4.5098-0.23895 0.50715-0.45108 1.0411-0.64844 1.5898-0.22063 0.74607-0.33762 1.5189-0.34766 2.2969h16.962c-0.01-0.778-0.128-1.551-0.349-2.297-0.192-0.53-0.376-1.0596-0.649-1.5896-1.469-2.7704-4.346-4.5046-7.482-4.5098zm-13.916 0.002c-0.1067 0.0055-0.2073 0.0329-0.3066 0.0644v0.91797c-0.083149 0.011339-0.1659 0.026458-0.25 0.046875v0.56641h0.25v0.046875h-0.76953c-0.3608 0.082704-0.4878 0.31924-0.48047 0.5625v0.0039062c0.013036 0.31365 0.24652 0.63626 0.48047 0.65625h0.76953v5.1094c-0.0961 0.015-0.1913 0.03-0.2871 0.045l-0.0019531 0.34375c-0.031861-0.022677-0.058163-0.011339-0.083984 0l0.002 9.932-0.0957 7.449c-0.1862 0.068-0.3611 0.14-0.5527 0.207-2.5451 0.749-2.545 2.867-2.545 4.019v6.6621h35.572v-6.6621c0-1.1525 0.00016284-3.2682-2.5449-4.0195-1.2109-0.42077-2.3081-0.88043-3.373-1.3418l-2.652-1.15c-0.795-0.341-1.588-0.669-2.405-0.959-1.5652 1.4702-4.7177 2.8115-6.8027 2.8438-2.5629-0.002872-5.0208-1.0188-6.8379-2.8262l-0.10938 0.029297c-0.87529 0.31559-1.7272 0.6743-2.582 1.0449l-1.8359 0.79492-0.5-6.1836c0.26798-0.13757 0.23687-0.36386 0.12109-0.46484-0.21582-0.0011-0.59434 0.087853-0.58789-0.11133l-0.2168-9.2969h-0.050781v-0.30859h-0.001953l0.33203-0.36328-0.035156-0.0625c0.035301-0.015118 0.073439-0.021917 0.14062 0.023438 0.079159 0.071059 0.13669 0.018645 0.19922-0.007813l0.241-0.217c0.04495-0.071429 0.10684-0.105 0.11133-0.26562l-0.076172-0.25195c-0.10106-0.09524-0.16965-0.086946-0.23633-0.070312l-0.36133 0.30273c-0.07033 0.083531-0.060742 0.14177-0.044922 0.19922l-0.099609 0.058594-0.035156-0.060547h-0.20312v-1.816h0.146v0.11133c0.05393 0.015118 0.1088 0.037799 0.1543 0v-0.9549c-0.05745-0.041949-0.10528-0.015118-0.1543 0v0.1113h-0.14648v-1.8906h0.009766v-1.2246h-0.009766v-0.76172c-0.20677-0.048756-0.38521-0.1183-0.80664 0v0.097656c-0.034054-0.00231-0.069417-0.004033-0.10352-0.0078125v-0.90625c-0.1236-0.054-0.2368-0.0702-0.3436-0.0646zm13.924 1.2637c-0.023786 0.00096265-0.1336 0.17782-0.24414 0.39844-0.11084 0.22144-0.21738 0.41043-0.23438 0.42188-0.016981 0.010885-0.193 0.041694-0.39453 0.070312-0.49366 0.070114-0.51953 0.077378-0.51953 0.14062 0 0.030236 0.14543 0.19444 0.32422 0.36328l0.10352 0.097656h0.001953l0.22 0.2089-0.077 0.4434c-0.042526 0.24342-0.066707 0.46852-0.054688 0.5 0.004579 0.011452 0.010188 0.021245 0.023438 0.023438h0.003906c0.043487 0.0043087 0.14553-0.045273 0.41797-0.1875l0.42578-0.2207 0.41406 0.21875c0.31965 0.17171 0.42074 0.21036 0.44727 0.17773 0.011876-0.014891 0.014708-0.061357 0.007813-0.14062-0.006774-0.07861-0.022987-0.1896-0.048828-0.33984v-0.0019531l-0.076172-0.4375 0.248-0.252 0.091797-0.09375c0.26-0.2649 0.329-0.3543 0.299-0.3847-0.03-0.03-0.729-0.1583-0.895-0.164-0.014005-0.00048642-0.11889-0.18812-0.23438-0.41992-0.11548-0.23174-0.22857-0.42188-0.25195-0.42188zm-13.58 0.32812h0.10352v0.046875h-0.1043zm-1.5273 0.42578c0.0026-0.000082394 0.0052114-0.000082394 0.0078125 0 0.051729-0.000059339 0.098547 0.032164 0.11914 0.082031h0.4509v0.0723h-0.4414c-0.0083 0.0681-0.0635 0.1192-0.1289 0.1191-0.0715-0.0005-0.1292-0.0616-0.129-0.1367-0.0003-0.072 0.0527-0.1319 0.1211-0.1367zm1.5273 0.84766h0.10352v5.0531c-0.0349 0-0.0703-0.003-0.1043-0.002zm11.83 1.1641c-0.007784 0-0.010982 0.22251-0.005859 0.49609l0.009766 0.49609 0.85938 0.49414 0.001953 0.001953c0.47168 0.27141 0.86296 0.49564 0.86914 0.49805 0.006199 0.001774 0.4041-0.22113 0.88477-0.49414l0.875-0.49609v-0.5019c1e-8 -0.27533-0.011454-0.49296-0.025391-0.48438-0.68365 0.39409-1.0504 0.60035-1.3066 0.73828-0.16261 0.087284-0.31039 0.16656-0.37305 0.18945-0.053804 0.020032-0.082818 0.020298-0.10156 0.011719-0.042314-0.019276-0.43577-0.24064-0.875-0.49219-0.43923-0.25149-0.80472-0.45703-0.8125-0.45703zm0.011719 1.4609c-0.013878-0.008013-0.023762 0.2077-0.023438 0.48242v0.5l0.16992 0.095703 0.14648 0.085938 0.55273 0.31641c0.47648 0.27338 0.88248 0.494 0.90234 0.48828 0.02083-0.005367 0.41839-0.228 0.88477-0.49414l0.85156-0.48242v-0.48633c0-0.26668-0.011618-0.48438-0.023438-0.48438-0.01176 0-0.39677 0.2131-0.85547 0.47266-0.45794 0.25947-0.85161 0.47266-0.87305 0.47266-0.02996 0-0.7954-0.4267-1.7324-0.9668zm-10.137 1.5098c0.02589 0.06274 0.040113 0.12772 0.033203 0.19727-0.07462 0.12359-0.17215 0.15494-0.25781 0.23242-0.030648-0.04687-0.064826-0.08847-0.072266-0.17578 0.08822-0.10998 0.19684-0.1734 0.29688-0.25391zm4.8945 1.75v0.004h-1.2422c-0.03345 0.88398-0.048127 1.8159-0.041016 2.8203 0.009245 0.57266 0.032388 1.9373 1.291 2.123v1.244c0 2.0844 0.5155 4.1544 1.9922 5.084 2.09 1.3157 3.1271 2.1809 4.9668 2.2383 1.2599 0.00378 2.871-1.135 4.6094-2.2227 1.5631-0.97807 2.3613-3.0259 2.3613-5.0996-0.002677-0.38998-0.008327-0.77994-0.011719-1.1699 1.3594 0.13693 1.1332-1.3482 1.2422-2.1973 0.004362-1.0243-0.014941-1.9389-0.044922-2.8203h-1.2324v-0.003906h-0.51562l0.042969 5.8867c0 1.8753-0.63337 4.0318-2.0469 4.916-1.572 0.98366-3.2259 2.1971-4.3652 2.1934-1.6637-0.047622-2.9459-1.0229-4.8359-2.2129-1.3354-0.84057-1.665-2.9881-1.6602-4.873 0.004926-1.9701 0.011719-3.9401 0.011719-5.9102zm3.9629 2.2559c-0.43898 0.00011339-0.79482 0.356-0.79492 0.79492 0.00009828 0.43895 0.35596 0.79481 0.79492 0.79492 0.43898-0.00011339 0.79482-0.35604 0.79492-0.79492-0.00009828-0.43899-0.35596-0.79481-0.79492-0.79492zm5.9688 0c-0.43898 0.00011339-0.79483 0.356-0.79492 0.79492 0.0000945 0.43895 0.35592 0.79481 0.79492 0.79492 0.43898-0.00011339 0.79482-0.35604 0.79492-0.79492-0.00009828-0.43899-0.35596-0.79481-0.79492-0.79492zm-3.036 3.669c-0.37814 0.00378-0.67004 0.070579-0.66602 0.14844 0.001999 0.080882 0.32239 0.14686 0.7168 0.14648 0.39441 0.00003759 0.71477-0.065602 0.7168-0.14648 0.003201-0.082016-0.31865-0.14844-0.7168-0.14844-0.017008-0.00011339-0.034-0.00011339-0.050781 0zm2.9551 2.2617c-0.00007561 0.00041575-0.011341 0.001424-0.011719 0.001953 0.00011717 0.00037775 0.011719-0.00041575 0.011719 0zm-0.011719 0.001953c-0.015874-0.053669-1.2268 0.071172-2.7285 0.2832-0.064441 0.007559-0.12896 0.019785-0.19336 0.027344-1.4369 0.2075-2.5416 0.40995-2.5215 0.46094 0.026079 0.052158 1.2485-0.077409 2.7422-0.28906 1.4821-0.21014 2.6733-0.42369 2.7012-0.48242zm-10.244 13.027l-1.7266 4.6406h1.0156l0.31836-0.95703h1.6777l0.32227 0.95703h1.0156l-1.7363-4.6406zm3.0625 0v4.6406h0.95703v-1.699h0.761l0.87109 1.6992h1.0254v-0.044922l-1.0039-1.8965c0.27837-0.12537 0.4851-0.29353 0.62109-0.50391 0.13812-0.2125 0.20703-0.47635 0.20703-0.79297 0-0.44624-0.14782-0.79274-0.44531-1.0371-0.2975-0.24437-0.72129-0.36523-1.2695-0.36523zm4.1699 0v4.6406h0.95703v-1.27l-0.096-2.185 1.248 3.455h0.658l1.252-3.459-0.095703 2.1895v1.2695h0.95898v-4.6406h-1.256l-1.185 3.365-1.192-3.366zm5.2285 0 1.5234 2.957v1.6836h0.9707v-1.6836l1.5234-2.957h-1.044l-0.965 2.09-0.961-2.09zm-8.4414 0.77344h0.76758c0.25712 0 0.44706 0.06408 0.57031 0.18945 0.12537 0.12537 0.18945 0.29675 0.18945 0.51562 0 0.21462-0.065518 0.38456-0.19727 0.50781-0.13175 0.12112-0.31847 0.18164-0.55859 0.18164h-0.77148zm-3.5762 0.39844 0.58398 1.7383h-1.161z" fill-rule="evenodd" transform="matrix(.26458 0 0 .26458 0 284.3)"/>
 </g>
</svg>

<svg width="48" height="48" viewBox="0 0 48 48" fill="none" xmlns="http://www.w3.org/2000/svg">
<path fill-rule="evenodd" clip-rule="evenodd" d="M23.5017 4.93164C20.3644 4.93535 17.4852 6.66972 16.0155 9.44138C15.7765 9.94853 15.5644 10.4825 15.367 11.0312C15.1464 11.7772 15.0294 12.55 15.0194 13.328H31.9812C31.9712 12.55 31.8532 11.7771 31.6322 11.0311C31.4402 10.5011 31.2562 9.97148 30.9832 9.44148C29.5142 6.67112 26.6372 4.93694 23.5013 4.93174L23.5017 4.93164ZM9.58583 4.93364C9.47913 4.93914 9.37853 4.96654 9.27924 4.99804V5.916C9.19609 5.92734 9.11334 5.94246 9.02924 5.96287V6.52928H9.27924V6.57615H8.50972C8.14892 6.65885 8.02192 6.89539 8.02925 7.13864V7.14255C8.04229 7.4562 8.27577 7.7788 8.50972 7.79879H9.27924V12.9081C9.18314 12.9231 9.08794 12.9381 8.99214 12.9531L8.99019 13.2969C8.95833 13.2742 8.93202 13.2855 8.9062 13.2969L8.9082 23.2287L8.81251 30.6777C8.62631 30.7457 8.45141 30.8177 8.25981 30.8847C5.71474 31.6336 5.71484 33.7516 5.71484 34.9036V41.5656H41.2864V34.9036C41.2864 33.7511 41.2866 31.6354 38.7415 30.8842C37.5306 30.4634 36.4335 30.0037 35.3686 29.5424L32.7166 28.3924C31.9216 28.0514 31.1286 27.7234 30.3116 27.4334C28.7465 28.9036 25.594 30.2449 23.509 30.2772C20.9462 30.2743 18.4883 29.2584 16.6712 27.451L16.5618 27.4803C15.6865 27.7959 14.8346 28.1546 13.9799 28.5252L12.144 29.3201L11.644 23.1366C11.912 22.999 11.8809 22.7727 11.7651 22.6717C11.5493 22.6706 11.1707 22.7596 11.1772 22.5604L10.9604 13.2636H10.9096V12.955H10.9077L11.2397 12.5918L11.2045 12.5293C11.2398 12.5141 11.278 12.5073 11.3452 12.5527C11.4243 12.6238 11.4818 12.5713 11.5444 12.5449L11.7854 12.3279C11.8303 12.2565 11.8922 12.2229 11.8967 12.0623L11.8205 11.8103C11.7195 11.7151 11.6509 11.7234 11.5842 11.74L11.2229 12.0427C11.1525 12.1263 11.1621 12.1845 11.178 12.242L11.0783 12.3005L11.0432 12.24H10.8401V10.424H10.9861V10.5354C11.04 10.5505 11.0949 10.5732 11.1404 10.5354V9.58047C11.0829 9.53852 11.0351 9.56535 10.9861 9.58047V9.69176H10.8396V7.80119H10.8494V6.5766H10.8396V5.81489C10.6328 5.76614 10.4544 5.69659 10.033 5.81489V5.91255C9.99891 5.91024 9.96354 5.90851 9.92944 5.90473V4.9985C9.80584 4.9445 9.69264 4.9283 9.58585 4.9339L9.58583 4.93364ZM23.5097 6.19732C23.4859 6.19829 23.3761 6.37514 23.2655 6.59576C23.1547 6.8172 23.0481 7.00618 23.0311 7.01763C23.0142 7.02852 22.8381 7.05933 22.6366 7.08795C22.143 7.15806 22.1171 7.16532 22.1171 7.22856C22.1171 7.2588 22.2625 7.423 22.4413 7.59184L22.5448 7.68949H22.5468L22.7668 7.89839L22.6898 8.34179C22.6473 8.5852 22.6231 8.8103 22.6351 8.84178C22.6397 8.85323 22.6453 8.86302 22.6585 8.86522H22.6624C22.7059 8.86953 22.808 8.81994 23.0804 8.67772L23.5062 8.45702L23.9202 8.67577C24.2399 8.84748 24.341 8.88613 24.3675 8.8535C24.3794 8.83861 24.3822 8.79214 24.3753 8.71288C24.3685 8.63427 24.3523 8.52328 24.3265 8.37304V8.37109L24.2503 7.9336L24.4983 7.6816L24.5901 7.58785C24.8501 7.32295 24.9191 7.23356 24.8891 7.20316C24.8591 7.17316 24.1601 7.04486 23.9941 7.03916C23.9801 7.03867 23.8752 6.85104 23.7597 6.61924C23.6443 6.38751 23.5312 6.19737 23.5078 6.19737L23.5097 6.19732ZM9.92983 6.52544H10.0333V6.57232H9.92905L9.92983 6.52544ZM8.40255 6.95122C8.40515 6.95113 8.40776 6.95113 8.41036 6.95122C8.46209 6.95116 8.50891 6.98338 8.5295 7.03325H8.98039V7.10554H8.539C8.5307 7.17364 8.4755 7.22474 8.4101 7.22464C8.3386 7.22414 8.2809 7.16304 8.2811 7.08794C8.2808 7.01595 8.3338 6.95605 8.4022 6.95125L8.40255 6.95122ZM9.92983 7.79886H10.0333V12.8519C9.99845 12.8519 9.96305 12.8489 9.92905 12.8499L9.92983 7.79886ZM21.7597 8.96295C21.7519 8.96295 21.7487 9.18546 21.7538 9.45903L21.7636 9.95512L22.623 10.4493L22.6249 10.4512C23.0966 10.7226 23.4879 10.9468 23.494 10.9492C23.5002 10.951 23.8981 10.7281 24.3788 10.4551L25.2538 9.95903V9.45714C25.2538 9.18181 25.2423 8.96418 25.2284 8.97276C24.5448 9.36685 24.178 9.57311 23.9218 9.71103C23.7592 9.79832 23.6114 9.87759 23.5488 9.90048C23.495 9.92051 23.466 9.92078 23.4472 9.9122C23.4049 9.89292 23.0114 9.67156 22.5722 9.42002C22.133 9.16853 21.7675 8.96299 21.7597 8.96299V8.96295ZM21.7714 10.4238C21.7575 10.4158 21.7476 10.6315 21.748 10.9062V11.4062L21.9179 11.5019L22.0644 11.5879L22.6171 11.9043C23.0936 12.1777 23.4996 12.3983 23.5194 12.3926C23.5402 12.3872 23.9378 12.1646 24.4042 11.8984L25.2557 11.416V10.9297C25.2557 10.663 25.2441 10.4453 25.2323 10.4453C25.2205 10.4453 24.8355 10.6584 24.3768 10.918C23.9189 11.1774 23.5252 11.3906 23.5038 11.3906C23.4738 11.3906 22.7084 10.9639 21.7714 10.4238ZM11.6345 11.9336C11.6604 11.9964 11.6746 12.0613 11.6677 12.1309C11.5931 12.2545 11.4956 12.2858 11.4099 12.3633C11.3793 12.3164 11.3451 12.2748 11.3377 12.1875C11.4259 12.0775 11.5345 12.0141 11.6345 11.9336ZM16.529 13.6836V13.6876H15.2868C15.2533 14.5716 15.2387 15.5035 15.2458 16.5079C15.255 17.0805 15.2782 18.4451 16.5367 18.6308V19.8748C16.5367 21.9592 17.0522 24.0292 18.5289 24.9587C20.6189 26.2744 21.656 27.1396 23.4957 27.197C24.7555 27.2008 26.3666 26.062 28.105 24.9743C29.6681 23.9963 30.4663 21.9485 30.4663 19.8748C30.4636 19.4848 30.4579 19.0949 30.4546 18.7049C31.8139 18.8419 31.5877 17.3567 31.6967 16.5077C31.7011 15.4834 31.6818 14.5688 31.6518 13.6874H30.4194V13.6835H29.9038L29.9468 19.5701C29.9468 21.4454 29.3134 23.6019 27.8999 24.486C26.3279 25.4697 24.6741 26.6831 23.5348 26.6794C21.8711 26.6318 20.5889 25.6565 18.6989 24.4666C17.3635 23.626 17.034 21.4785 17.0388 19.5936C17.0437 17.6235 17.0505 15.6536 17.0505 13.6835L16.529 13.6836ZM20.4918 15.9395C20.0528 15.9396 19.697 16.2955 19.6969 16.7344C19.697 17.1733 20.0529 17.5292 20.4918 17.5293C20.9308 17.5292 21.2866 17.1732 21.2867 16.7344C21.2866 16.2954 20.9308 15.9396 20.4918 15.9395ZM26.4605 15.9395C26.0216 15.9396 25.6657 16.2955 25.6656 16.7344C25.6657 17.1733 26.0215 17.5292 26.4605 17.5293C26.8995 17.5292 27.2554 17.1732 27.2555 16.7344C27.2554 16.2954 26.8995 15.9396 26.4605 15.9395ZM23.4246 19.6084C23.0464 19.6122 22.7545 19.679 22.7586 19.7569C22.7606 19.8377 23.081 19.9037 23.4754 19.9033C23.8698 19.9034 24.1901 19.8377 24.1921 19.7569C24.1954 19.6748 23.8735 19.6084 23.4754 19.6084C23.4584 19.6083 23.4414 19.6083 23.4246 19.6084ZM26.3796 21.8701C26.3796 21.8705 26.3683 21.8715 26.3679 21.872C26.368 21.8724 26.3796 21.8716 26.3796 21.872V21.8701ZM26.3679 21.872C26.3521 21.8184 25.1411 21.9432 23.6395 22.1552C23.575 22.1628 23.5105 22.175 23.4461 22.1826C22.0092 22.3901 20.9045 22.5925 20.9246 22.6435C20.9507 22.6957 22.1731 22.5661 23.6668 22.3545C25.1489 22.1443 26.3401 21.9308 26.368 21.872H26.3679ZM16.1241 34.8989L14.3975 39.5394H15.4131L15.7314 38.5824H17.4091L17.7314 39.5394H18.7469L17.0107 34.8989H16.1241ZM19.1865 34.8989V39.5394H20.1435V37.8404H20.9045L21.7756 39.5396H22.801V39.4947L21.7971 37.5982C22.0755 37.4729 22.2822 37.3047 22.4182 37.0943C22.5563 36.8818 22.6252 36.618 22.6252 36.3014C22.6252 35.8551 22.4774 35.5086 22.1799 35.2643C21.8824 35.0199 21.4586 34.899 20.9104 34.899L19.1865 34.8989ZM23.3564 34.8989V39.5394H24.3134V38.2694L24.2174 36.0845L25.4654 39.5394H26.1234L27.3753 36.0805L27.2796 38.2699V39.5394H28.2386V34.8989H26.9826L25.7976 38.2638L24.6057 34.8979L23.3564 34.8989ZM28.5848 34.8989L30.1082 37.8558V39.5394H31.0789V37.8558L32.6022 34.8989H31.5583L30.5933 36.9889L29.6323 34.8989H28.5848ZM20.1435 35.6723H20.9111C21.1682 35.6723 21.3581 35.7364 21.4814 35.8618C21.6067 35.9871 21.6708 36.1585 21.6708 36.3774C21.6708 36.592 21.6053 36.7619 21.4736 36.8852C21.3418 37.0063 21.1551 37.0668 20.915 37.0668H20.1435V35.6723ZM16.5673 36.0707L17.1513 37.809H15.9903L16.5673 36.0707Z" fill="#333333"/>
</svg>
